storage/app/icons/phosphoricons/duotone/upload-simple-duotone.svg

<svg xmlns="http://www.w3.org/2000/svg" fill="currentColor" viewBox="0 0 256 256"><path d="M216 48v160H40V48a16 16 0 0 1 16-16h144a16 16 0 0 1 16 16" opacity=".2"/><path d="M224 144v64a8 8 0 0 1-8 8H40a8 8 0 0 1-8-8v-64a8 8 0 0 1 16 0v56h160v-56a8 8 0 0 1 16 0M93.66 77.66 120 51.31V144a8 8 0 0 0 16 0V51.31l26.34 26.35a8 8 0 0 0 11.32-11.32l-40-40a8 8 0 0 0-11.32 0l-40 40a8 8 0 0 0 11.32 11.32"/></svg>

<svg xmlns="http://www.w3.org/2000/svg" viewBox="0 0 256 256" fill="currentColor"><path d="M216,48V208H40V48A16,16,0,0,1,56,32H200A16,16,0,0,1,216,48Z" opacity="0.2"/><path d="M224,144v64a8,8,0,0,1-8,8H40a8,8,0,0,1-8-8V144a8,8,0,0,1,16,0v56H208V144a8,8,0,0,1,16,0ZM93.66,77.66,120,51.31V144a8,8,0,0,0,16,0V51.31l26.34,26.35a8,8,0,0,0,11.32-11.32l-40-40a8,8,0,0,0-11.32,0l-40,40A8,8,0,0,0,93.66,77.66Z"/></svg>
